static/img/kroki/26bd5f4e926f7529a6eb24108bbfc8e4.svg

<?xml version="1.0" encoding="us-ascii" standalone="no"?><svg xmlns="http://www.w3.org/2000/svg" xmlns:xlink="http://www.w3.org/1999/xlink" contentStyleType="text/css" height="252px" preserveAspectRatio="none" style="width:1853px;height:252px;" version="1.1" viewBox="0 0 1853 252" width="1853px" zoomAndPan="magnify"><defs/><g><!--class azure_authorization_management_lock--><g id="elem_azure_authorization_management_lock"><rect codeLine="23" fill="#3D176E" height="39.7891" id="azure_authorization_management_lock" rx="2.5" ry="2.5" style="stroke:#000D19;stroke-width:0.5;" width="373" x="7" y="7"/><ellipse cx="22" cy="26.8945" fill="#ADD1B2" rx="11" ry="11" style="stroke:#181818;stroke-width:1.0;"/><path d="M24.9688,32.5352 Q24.3906,32.832 23.75,32.9727 Q23.1094,33.1289 22.4063,33.1289 Q19.9063,33.1289 18.5781,31.4883 Q17.2656,29.832 17.2656,26.707 Q17.2656,23.582 18.5781,21.9258 Q19.9063,20.2695 22.4063,20.2695 Q23.1094,20.2695 23.75,20.4258 Q24.4063,20.582 24.9688,20.8789 L24.9688,23.5977 Q24.3438,23.0195 23.75,22.7539 Q23.1563,22.4727 22.5313,22.4727 Q21.1875,22.4727 20.5,23.5508 Q19.8125,24.6133 19.8125,26.707 Q19.8125,28.8008 20.5,29.8789 Q21.1875,30.9414 22.5313,30.9414 Q23.1563,30.9414 23.75,30.6758 Q24.3438,30.3945 24.9688,29.8164 L24.9688,32.5352 Z " fill="#000000"/><text fill="#D9B8FF" font-family="Helvetica" font-size="17" lengthAdjust="spacing" textLength="331" x="41" y="32.7798">azure_authorization_management_lock</text></g><!--class azure_authorization_role_assignment--><g id="elem_azure_authorization_role_assignment"><rect codeLine="26" fill="#3D176E" height="39.7891" id="azure_authorization_role_assignment" rx="2.5" ry="2.5" style="stroke:#000D19;stroke-width:0.5;" width="356" x="1008.5" y="206.58"/><ellipse cx="1023.5" cy="226.4745" fill="#ADD1B2" rx="11" ry="11" style="stroke:#181818;stroke-width:1.0;"/><path d="M1026.4688,232.1152 Q1025.8906,232.412 1025.25,232.5527 Q1024.6094,232.7089 1023.9063,232.7089 Q1021.4063,232.7089 1020.0781,231.0683 Q1018.7656,229.412 1018.7656,226.287 Q1018.7656,223.162 1020.0781,221.5058 Q1021.4063,219.8495 1023.9063,219.8495 Q1024.6094,219.8495 1025.25,220.0058 Q1025.9063,220.162 1026.4688,220.4589 L1026.4688,223.1777 Q1025.8438,222.5995 1025.25,222.3339 Q1024.6563,222.0527 1024.0313,222.0527 Q1022.6875,222.0527 1022,223.1308 Q1021.3125,224.1933 1021.3125,226.287 Q1021.3125,228.3808 1022,229.4589 Q1022.6875,230.5214 1024.0313,230.5214 Q1024.6563,230.5214 1025.25,230.2558 Q1025.8438,229.9745 1026.4688,229.3964 L1026.4688,232.1152 Z " fill="#000000"/><text fill="#D9B8FF" font-family="Helvetica" font-size="17" lengthAdjust="spacing" textLength="314" x="1042.5" y="232.3598">azure_authorization_role_assignment</text></g><!--class azure_resource_group--><g id="elem_azure_resource_group"><rect codeLine="29" fill="#3D176E" height="39.7891" id="azure_resource_group" rx="2.5" ry="2.5" style="stroke:#000D19;stroke-width:0.5;" width="225" x="1621" y="7"/><ellipse cx="1636" cy="26.8945" fill="#ADD1B2" rx="11" ry="11" style="stroke:#181818;stroke-width:1.0;"/><path d="M1638.9688,32.5352 Q1638.3906,32.832 1637.75,32.9727 Q1637.1094,33.1289 1636.4063,33.1289 Q1633.9063,33.1289 1632.5781,31.4883 Q1631.2656,29.832 1631.2656,26.707 Q1631.2656,23.582 1632.5781,21.9258 Q1633.9063,20.2695 1636.4063,20.2695 Q1637.1094,20.2695 1637.75,20.4258 Q1638.4063,20.582 1638.9688,20.8789 L1638.9688,23.5977 Q1638.3438,23.0195 1637.75,22.7539 Q1637.1563,22.4727 1636.5313,22.4727 Q1635.1875,22.4727 1634.5,23.5508 Q1633.8125,24.6133 1633.8125,26.707 Q1633.8125,28.8008 1634.5,29.8789 Q1635.1875,30.9414 1636.5313,30.9414 Q1637.1563,30.9414 1637.75,30.6758 Q1638.3438,30.3945 1638.9688,29.8164 L1638.9688,32.5352 Z " fill="#000000"/><text fill="#D9B8FF" font-family="Helvetica" font-size="17" lengthAdjust="spacing" textLength="183" x="1655" y="32.7798">azure_resource_group</text></g><!--class azure_security_assessment--><g id="elem_azure_security_assessment"><rect codeLine="32" fill="#3D176E" height="39.7891" id="azure_security_assessment" rx="2.5" ry="2.5" style="stroke:#000D19;stroke-width:0.5;" width="269" x="415" y="7"/><ellipse cx="430" cy="26.8945" fill="#ADD1B2" rx="11" ry="11" style="stroke:#181818;stroke-width:1.0;"/><path d="M432.9688,32.5352 Q432.3906,32.832 431.75,32.9727 Q431.1094,33.1289 430.4063,33.1289 Q427.9063,33.1289 426.5781,31.4883 Q425.2656,29.832 425.2656,26.707 Q425.2656,23.582 426.5781,21.9258 Q427.9063,20.2695 430.4063,20.2695 Q431.1094,20.2695 431.75,20.4258 Q432.4063,20.582 432.9688,20.8789 L432.9688,23.5977 Q432.3438,23.0195 431.75,22.7539 Q431.1563,22.4727 430.5313,22.4727 Q429.1875,22.4727 428.5,23.5508 Q427.8125,24.6133 427.8125,26.707 Q427.8125,28.8008 428.5,29.8789 Q429.1875,30.9414 430.5313,30.9414 Q431.1563,30.9414 431.75,30.6758 Q432.3438,30.3945 432.9688,29.8164 L432.9688,32.5352 Z " fill="#000000"/><text fill="#D9B8FF" font-family="Helvetica" font-size="17" lengthAdjust="spacing" textLength="227" x="449" y="32.7798">azure_security_assessment</text></g><!--class azure_sql_server_ad_administrator--><g id="elem_azure_sql_server_ad_administrator"><rect codeLine="35" fill="#3D176E" height="39.7891" id="azure_sql_server_ad_administrator" rx="2.5" ry="2.5" style="stroke:#000D19;stroke-width:0.5;" width="333" x="719" y="7"/><ellipse cx="734" cy="26.8945" fill="#ADD1B2" rx="11" ry="11" style="stroke:#181818;stroke-width:1.0;"/><path d="M736.9688,32.5352 Q736.3906,32.832 735.75,32.9727 Q735.1094,33.1289 734.4063,33.1289 Q731.9063,33.1289 730.5781,31.4883 Q729.2656,29.832 729.2656,26.707 Q729.2656,23.582 730.5781,21.9258 Q731.9063,20.2695 734.4063,20.2695 Q735.1094,20.2695 735.75,20.4258 Q736.4063,20.582 736.9688,20.8789 L736.9688,23.5977 Q736.3438,23.0195 735.75,22.7539 Q735.1563,22.4727 734.5313,22.4727 Q733.1875,22.4727 732.5,23.5508 Q731.8125,24.6133 731.8125,26.707 Q731.8125,28.8008 732.5,29.8789 Q733.1875,30.9414 734.5313,30.9414 Q735.1563,30.9414 735.75,30.6758 Q736.3438,30.3945 736.9688,29.8164 L736.9688,32.5352 Z " fill="#000000"/><text fill="#D9B8FF" font-family="Helvetica" font-size="17" lengthAdjust="spacing" textLength="291" x="753" y="32.7798">azure_sql_server_ad_administrator</text></g><!--class azure_sql_server_managed_instance_ad_administrator--><g id="elem_azure_sql_server_managed_instance_ad_administrator"><rect codeLine="38" fill="#3D176E" height="39.7891" id="azure_sql_server_managed_instance_ad_administrator" rx="2.5" ry="2.5" style="stroke:#000D19;stroke-width:0.5;" width="499" x="1087" y="7"/><ellipse cx="1102" cy="26.8945" fill="#ADD1B2" rx="11" ry="11" style="stroke:#181818;stroke-width:1.0;"/><path d="M1104.9688,32.5352 Q1104.3906,32.832 1103.75,32.9727 Q1103.1094,33.1289 1102.4063,33.1289 Q1099.9063,33.1289 1098.5781,31.4883 Q1097.2656,29.832 1097.2656,26.707 Q1097.2656,23.582 1098.5781,21.9258 Q1099.9063,20.2695 1102.4063,20.2695 Q1103.1094,20.2695 1103.75,20.4258 Q1104.4063,20.582 1104.9688,20.8789 L1104.9688,23.5977 Q1104.3438,23.0195 1103.75,22.7539 Q1103.1563,22.4727 1102.5313,22.4727 Q1101.1875,22.4727 1100.5,23.5508 Q1099.8125,24.6133 1099.8125,26.707 Q1099.8125,28.8008 1100.5,29.8789 Q1101.1875,30.9414 1102.5313,30.9414 Q1103.1563,30.9414 1103.75,30.6758 Q1104.3438,30.3945 1104.9688,29.8164 L1104.9688,32.5352 Z " fill="#000000"/><text fill="#D9B8FF" font-family="Helvetica" font-size="17" lengthAdjust="spacing" textLength="457" x="1121" y="32.7798">azure_sql_server_managed_instance_ad_administrator</text></g><!--class microsoft_resource--><g id="elem_microsoft_resource"><rect codeLine="41" fill="#3D176E" height="39.7891" id="microsoft_resource" rx="2.5" ry="2.5" style="stroke:#000D19;stroke-width:0.5;" width="200" x="1010.5" y="106.79"/><ellipse cx="1025.5" cy="126.6845" fill="#ADD1B2" rx="11" ry="11" style="stroke:#181818;stroke-width:1.0;"/><path d="M1028.4688,132.3252 Q1027.8906,132.622 1027.25,132.7627 Q1026.6094,132.9189 1025.9063,132.9189 Q1023.4063,132.9189 1022.0781,131.2783 Q1020.7656,129.622 1020.7656,126.497 Q1020.7656,123.372 1022.0781,121.7158 Q1023.4063,120.0595 1025.9063,120.0595 Q1026.6094,120.0595 1027.25,120.2158 Q1027.9063,120.372 1028.4688,120.6689 L1028.4688,123.3877 Q1027.8438,122.8095 1027.25,122.5439 Q1026.6563,122.2627 1026.0313,122.2627 Q1024.6875,122.2627 1024,123.3408 Q1023.3125,124.4033 1023.3125,126.497 Q1023.3125,128.5908 1024,129.6689 Q1024.6875,130.7314 1026.0313,130.7314 Q1026.6563,130.7314 1027.25,130.4658 Q1027.8438,130.1845 1028.4688,129.6064 L1028.4688,132.3252 Z " fill="#000000"/><text fill="#D9B8FF" font-family="Helvetica" font-size="17" lengthAdjust="spacing" textLength="158" x="1044.5" y="132.5698">microsoft_resource</text></g><!--link azure_authorization_management_lock to microsoft_resource--><g id="link_azure_authorization_management_lock_microsoft_resource"><path codeLine="44" d="M375.22,47.28 C565.67,67.59 851.9638,98.1137 1004.3238,114.3637 " fill="none" id="azure_authorization_management_lock-to-microsoft_resource" style="stroke:#1A83AF;stroke-width:2.0;"/><polygon fill="#1A83AF" points="1010.29,115,1001.765,110.0681,1005.3182,114.4697,1000.9165,118.023,1010.29,115" style="stroke:#1A83AF;stroke-width:2.0;"/></g><!--link azure_resource_group to azure_authorization_role_assignment--><g id="link_azure_resource_group_azure_authorization_role_assignment"><path codeLine="45" d="M1680.06,47.2 C1575.48,84.97 1350.5533,166.222 1245.8033,204.052 " fill="none" id="azure_resource_group-to-azure_authorization_role_assignment" style="stroke:#1A83AF;stroke-width:2.0;"/><polygon fill="#1A83AF" points="1240.16,206.09,1249.9836,206.7951,1244.8627,204.3916,1247.2662,199.2708,1240.16,206.09" style="stroke:#1A83AF;stroke-width:2.0;"/></g><!--link azure_resource_group to microsoft_resource--><g id="link_azure_resource_group_microsoft_resource"><path codeLine="46" d="M1620.68,45.61 C1503.83,63.95 1328.8774,91.4095 1216.8274,108.9995 " fill="none" id="azure_resource_group-to-microsoft_resource" style="stroke:#1A83AF;stroke-width:2.0;"/><polygon fill="#1A83AF" points="1210.9,109.93,1220.4114,112.4858,1215.8395,109.1546,1219.1708,104.5826,1210.9,109.93" style="stroke:#1A83AF;stroke-width:2.0;"/></g><!--link azure_security_assessment to microsoft_resource--><g id="link_azure_security_assessment_microsoft_resource"><path codeLine="47" d="M660.67,47.28 C762.57,65.04 906.1991,90.0695 1004.4591,107.1995 " fill="none" id="azure_security_assessment-to-microsoft_resource" style="stroke:#1A83AF;stroke-width:2.0;"/><polygon fill="#1A83AF" points="1010.37,108.23,1002.1907,102.7437,1005.4443,107.3713,1000.8168,110.6249,1010.37,108.23" style="stroke:#1A83AF;stroke-width:2.0;"/></g><!--link azure_sql_server_ad_administrator to microsoft_resource--><g id="link_azure_sql_server_ad_administrator_microsoft_resource"><path codeLine="48" d="M929.95,47.22 C969.4,64.36 1021.2176,86.8775 1060.6376,104.0175 " fill="none" id="azure_sql_server_ad_administrator-to-microsoft_resource" style="stroke:#1A83AF;stroke-width:2.0;"/><polygon fill="#1A83AF" points="1066.14,106.41,1059.4814,99.1531,1061.5547,104.4163,1056.2915,106.4896,1066.14,106.41" style="stroke:#1A83AF;stroke-width:2.0;"/></g><!--link azure_sql_server_managed_instance_ad_administrator to microsoft_resource--><g id="link_azure_sql_server_managed_instance_ad_administrator_microsoft_resource"><path codeLine="49" d="M1291.85,47.22 C1252.23,64.36 1200.1561,86.8862 1160.5661,104.0262 " fill="none" id="azure_sql_server_managed_instance_ad_administrator-to-microsoft_resource" style="stroke:#1A83AF;stroke-width:2.0;"/><polygon fill="#1A83AF" points="1155.06,106.41,1164.9084,106.505,1159.6484,104.4235,1161.73,99.1635,1155.06,106.41" style="stroke:#1A83AF;stroke-width:2.0;"/></g><!--link microsoft_resource to azure_authorization_role_assignment--><g id="link_microsoft_resource_azure_authorization_role_assignment"><path codeLine="50" d="M1125.52,147.01 C1138.84,164.15 1154.5183,184.3224 1167.8383,201.4624 " fill="none" id="microsoft_resource-to-azure_authorization_role_assignment" style="stroke:#1A83AF;stroke-width:2.0;"/><polygon fill="#1A83AF" points="1171.52,206.2,1169.1558,196.6391,1168.4519,202.252,1162.839,201.5481,1171.52,206.2" style="stroke:#1A83AF;stroke-width:2.0;"/></g><!--SRC=[bP91Jy9048Nl_HMRS3O1YG8N4oGnUZ56l1dJ3DqfREZkuinK0iR_xbRKbBOKIFQqyysRDsztOJGgj2lPA8jsXiGHBurR0O5LOoA_dlZCa-gaAQJzGRLuvvqS1Hx1ehh7x0F5950bNXOcMJfaLfUbqYqaopdvtEcTl10u3YLqKg8c6J2FHSZCSi6I6JsQ3TEqIbP5EttT6rnZ3VEaaNwHRhUhUwCgSdHKwzx_nDHiKVNAeJrwmPhDseWVgjLbGPHCrXRzgn_q-0HQ6pTNLwMxvvqdSaXxzzC5QBykw1GoBezXGK8lcnLEQblXQAZJGIFyS0YEaY8w1TkSC8PS5fxC5iHu5rjmC4SRFaYS-MIfFgFegmKdduKhPZDtHKyT9sIVKu9nuMDLhpCcEHdP52BXzpQBy7iMGFf0Ya67Ouqp7FwoX9tQuDqoEZQE1LmmqTPjJKAUVIh_ddVLKrAwUEtqniF- -ExjugP1A6hCOg_fX71FK3aukYdc4pjRiZzRuVY379DiUAMpS_m6]--></g></svg>

<svg xmlns="http://www.w3.org/2000/svg" width="1853" height="252" viewBox="0 0 1853 252"><rect width="373" height="39.789" x="7" y="7" fill="#3D176E" rx="2.5" ry="2.5" style="stroke:#000d19;stroke-width:.5"/><circle cx="22" cy="26.895" r="11" fill="#ADD1B2" style="stroke:#181818;stroke-width:1"/><path d="M24.969 32.535q-.578.297-1.219.438-.64.156-1.344.156-2.5 0-3.828-1.64-1.312-1.657-1.312-4.782t1.312-4.781q1.328-1.656 3.828-1.656.703 0 1.344.156.656.156 1.219.453v2.719q-.625-.578-1.219-.844-.594-.281-1.219-.281-1.343 0-2.031 1.078-.687 1.062-.687 3.156t.687 3.172q.688 1.062 2.031 1.062.625 0 1.219-.265.594-.281 1.219-.86z"/><text x="41" y="32.78" fill="#D9B8FF" font-family="Helvetica" font-size="17" textLength="331">azure_authorization_management_lock</text><rect width="356" height="39.789" x="1008.5" y="206.58" fill="#3D176E" rx="2.5" ry="2.5" style="stroke:#000d19;stroke-width:.5"/><circle cx="1023.5" cy="226.475" r="11" fill="#ADD1B2" style="stroke:#181818;stroke-width:1"/><path d="M1026.469 232.115q-.578.297-1.219.438-.64.156-1.344.156-2.5 0-3.828-1.64-1.312-1.657-1.312-4.782t1.312-4.781q1.328-1.656 3.828-1.656.703 0 1.344.156.656.156 1.219.453v2.719q-.625-.578-1.219-.844-.594-.281-1.219-.281-1.343 0-2.031 1.078-.687 1.062-.687 3.156t.687 3.172q.688 1.062 2.031 1.062.625 0 1.219-.265.594-.281 1.219-.86z"/><text x="1042.5" y="232.36" fill="#D9B8FF" font-family="Helvetica" font-size="17" textLength="314">azure_authorization_role_assignment</text><rect width="225" height="39.789" x="1621" y="7" fill="#3D176E" rx="2.5" ry="2.5" style="stroke:#000d19;stroke-width:.5"/><circle cx="1636" cy="26.895" r="11" fill="#ADD1B2" style="stroke:#181818;stroke-width:1"/><path d="M1638.969 32.535q-.578.297-1.219.438-.64.156-1.344.156-2.5 0-3.828-1.64-1.312-1.657-1.312-4.782t1.312-4.781q1.328-1.656 3.828-1.656.703 0 1.344.156.656.156 1.219.453v2.719q-.625-.578-1.219-.844-.594-.281-1.219-.281-1.343 0-2.031 1.078-.687 1.062-.687 3.156t.687 3.172q.688 1.062 2.031 1.062.625 0 1.219-.265.594-.281 1.219-.86z"/><text x="1655" y="32.78" fill="#D9B8FF" font-family="Helvetica" font-size="17" textLength="183">azure_resource_group</text><rect width="269" height="39.789" x="415" y="7" fill="#3D176E" rx="2.5" ry="2.5" style="stroke:#000d19;stroke-width:.5"/><circle cx="430" cy="26.895" r="11" fill="#ADD1B2" style="stroke:#181818;stroke-width:1"/><path d="M432.969 32.535q-.578.297-1.219.438-.64.156-1.344.156-2.5 0-3.828-1.64-1.312-1.657-1.312-4.782t1.312-4.781q1.328-1.656 3.828-1.656.703 0 1.344.156.656.156 1.219.453v2.719q-.625-.578-1.219-.844-.594-.281-1.219-.281-1.344 0-2.031 1.078-.687 1.062-.687 3.156t.687 3.172q.688 1.062 2.031 1.062.625 0 1.219-.265.594-.281 1.219-.86z"/><text x="449" y="32.78" fill="#D9B8FF" font-family="Helvetica" font-size="17" textLength="227">azure_security_assessment</text><rect width="333" height="39.789" x="719" y="7" fill="#3D176E" rx="2.5" ry="2.5" style="stroke:#000d19;stroke-width:.5"/><circle cx="734" cy="26.895" r="11" fill="#ADD1B2" style="stroke:#181818;stroke-width:1"/><path d="M736.969 32.535q-.578.297-1.219.438-.64.156-1.344.156-2.5 0-3.828-1.64-1.312-1.657-1.312-4.782t1.312-4.781q1.328-1.656 3.828-1.656.703 0 1.344.156.656.156 1.219.453v2.719q-.625-.578-1.219-.844-.594-.281-1.219-.281-1.343 0-2.031 1.078-.687 1.062-.687 3.156t.687 3.172q.688 1.062 2.031 1.062.625 0 1.219-.265.594-.281 1.219-.86z"/><text x="753" y="32.78" fill="#D9B8FF" font-family="Helvetica" font-size="17" textLength="291">azure_sql_server_ad_administrator</text><rect width="499" height="39.789" x="1087" y="7" fill="#3D176E" rx="2.5" ry="2.5" style="stroke:#000d19;stroke-width:.5"/><circle cx="1102" cy="26.895" r="11" fill="#ADD1B2" style="stroke:#181818;stroke-width:1"/><path d="M1104.969 32.535q-.578.297-1.219.438-.64.156-1.344.156-2.5 0-3.828-1.64-1.312-1.657-1.312-4.782t1.312-4.781q1.328-1.656 3.828-1.656.703 0 1.344.156.656.156 1.219.453v2.719q-.625-.578-1.219-.844-.594-.281-1.219-.281-1.343 0-2.031 1.078-.687 1.062-.687 3.156t.687 3.172q.688 1.062 2.031 1.062.625 0 1.219-.265.594-.281 1.219-.86z"/><text x="1121" y="32.78" fill="#D9B8FF" font-family="Helvetica" font-size="17" textLength="457">azure_sql_server_managed_instance_ad_administrator</text><rect width="200" height="39.789" x="1010.5" y="106.79" fill="#3D176E" rx="2.5" ry="2.5" style="stroke:#000d19;stroke-width:.5"/><circle cx="1025.5" cy="126.684" r="11" fill="#ADD1B2" style="stroke:#181818;stroke-width:1"/><path d="M1028.469 132.325q-.578.297-1.219.438-.64.156-1.344.156-2.5 0-3.828-1.64-1.312-1.657-1.312-4.782t1.312-4.781q1.328-1.656 3.828-1.656.703 0 1.344.156.656.156 1.219.453v2.719q-.625-.579-1.219-.844-.594-.281-1.219-.281-1.343 0-2.031 1.078-.687 1.062-.687 3.156t.687 3.172q.688 1.062 2.031 1.062.625 0 1.219-.265.594-.281 1.219-.86z"/><text x="1044.5" y="132.57" fill="#D9B8FF" font-family="Helvetica" font-size="17" textLength="158">microsoft_resource</text><path fill="none" d="M375.22 47.28c190.45 20.31 476.744 50.834 629.104 67.084" style="stroke:#1a83af;stroke-width:2"/><path fill="#1A83AF" d="m1010.29 115-8.525-4.932 3.553 4.402-4.401 3.553z" style="stroke:#1a83af;stroke-width:2"/><path fill="none" d="M1680.06 47.2c-104.58 37.77-329.507 119.022-434.257 156.852" style="stroke:#1a83af;stroke-width:2"/><path fill="#1A83AF" d="m1240.16 206.09 9.824.705-5.121-2.403 2.403-5.121z" style="stroke:#1a83af;stroke-width:2"/><path fill="none" d="M1620.68 45.61c-116.85 18.34-291.803 45.8-403.853 63.39" style="stroke:#1a83af;stroke-width:2"/><path fill="#1A83AF" d="m1210.9 109.93 9.511 2.556-4.572-3.331 3.332-4.572z" style="stroke:#1a83af;stroke-width:2"/><path fill="none" d="M660.67 47.28c101.9 17.76 245.53 42.79 343.79 59.92" style="stroke:#1a83af;stroke-width:2"/><path fill="#1A83AF" d="m1010.37 108.23-8.18-5.486 3.254 4.627-4.627 3.254z" style="stroke:#1a83af;stroke-width:2"/><path fill="none" d="M929.95 47.22a566032 566032 0 0 1 130.688 56.798" style="stroke:#1a83af;stroke-width:2"/><path fill="#1A83AF" d="m1066.14 106.41-6.659-7.257 2.074 5.263-5.264 2.074z" style="stroke:#1a83af;stroke-width:2"/><path fill="none" d="M1291.85 47.22c-39.62 17.14-91.694 39.666-131.284 56.806" style="stroke:#1a83af;stroke-width:2"/><path fill="#1A83AF" d="m1155.06 106.41 9.848.095-5.26-2.081 2.082-5.26z" style="stroke:#1a83af;stroke-width:2"/><path fill="none" d="m1125.52 147.01 42.318 54.452" style="stroke:#1a83af;stroke-width:2"/><path fill="#1A83AF" d="m1171.52 206.2-2.364-9.56-.704 5.612-5.613-.704z" style="stroke:#1a83af;stroke-width:2"/></svg>
